X: 1
T: Elizabeth Donald's
M: 6/8
L: 1/8
R: jig
K: Gmaj
|: d | B2 G GFG | E2 G D2 G | E2 G D2 G | FGA Adc |
BGG GFG | EGG D2 e | cAF DD/E/F | G3 G2 :|
|: B/A/ | G2 B B^AB | G2 B d2 B | E2 A ABA | F2 A D2 d |
[1 B2 G GFG | EGc e3 | cAF DEF | G3 G2 :|
[2 GFG BG/A/B | EGc e2 g | ecA DD/E/F | G3 G2 ||
